dist/upp/assets/img/soc-x.svg

<svg width="24" height="24" viewBox="0 0 24 24" fill="none" xmlns="http://www.w3.org/2000/svg">
<path d="M18.3508 17.6822L9.25281 5.90835L8.71763 5.37317H6.04175L16.2101 18.2174H18.3508V17.6822Z" fill="white"/>
<path d="M5.03647 4.8H4.63716L4.8763 5.11978L10.551 12.7082L4.85322 18.8641L4.54236 19.2H5H6.30781H6.39522L6.45459 19.1359L11.3789 13.8155L15.3457 19.1198L15.4056 19.2H15.5058H19.9563H20.3556L20.1165 18.8802L14.1169 10.8574L19.4125 5.13585L19.7234 4.8H19.2658H17.9579H17.8705L17.8112 4.86415L13.289 9.75019L9.64716 4.88022L9.58717 4.8H9.48699H5.03647ZM16.0884 17.8364L7.359 6.16344H8.90411L17.6335 17.8364H16.0884Z" fill="white" stroke="white" stroke-width="0.4"/>
</svg>

<svg width="24" height="24" fill="none" xmlns="http://www.w3.org/2000/svg"><path d="M18.35 17.682L9.254 5.908l-.535-.535H6.042L16.21 18.217h2.14v-.535z" fill="#fff"/><path d="M5.036 4.8h-.399l.24.32 5.674 7.588-5.698 6.156-.31.336h1.852l.06-.064 4.924-5.32 3.967 5.304.06.08h4.95l-.24-.32-6-8.023 5.297-5.721.31-.336h-1.852l-.06.064L13.29 9.75 9.647 4.88l-.06-.08h-4.55zm11.052 13.036L7.36 6.163h1.545l8.73 11.673h-1.546z" fill="#fff" stroke="#fff" stroke-width=".4"/></svg>
